X:457
T:The boys of Bluehill
T:The beaux of Oak Hill
R:Hornpipe
O:Ireland
B:Kerr's second p.36
B:O'Neill's 1700
B:Roche 3 n183
S:As per local Sessions...
Z:Transcription, arrangement, chords:Mike Long
M:4/4
L:1/8
K:D
FA|\
"D"BAFA D2FA|"G"BA (3(Bcd) "A"e2de|"D"fagf "A"egfe|"D"dfed "G"B2dB|\
"D"(3(ABA) FA D2FA|
"G"BA (3(Bcd) "A"e2de|"D"fagf "A"egfe|"D"d2 {e}dc d2:|\
|:fg|\
"D"afdf a2gf|"G"efga b2ag|
"D"fagf "A"egfe|"D"dfed "G"BcdB|\
"D"(3(ABA) FA D2FA|"G"BA (3(Bcd) "A"e2de|"D"fagf "A"egfe|"D"d2 {e}dc d2:|
